img/mail-icon.svg

<svg xmlns="http://www.w3.org/2000/svg" width="25" height="19" viewBox="0 0 25 19" fill="none">
  <path d="M24.673 1.94807C24.673 6.98047 24.673 12.0123 24.673 17.0447C24.6657 17.0593 24.6548 17.0733 24.6524 17.0886C24.4744 18.2596 23.5082 19.0342 22.2716 18.9988C21.1962 18.9683 20.1196 18.9927 19.0436 18.9927C13.4624 18.9927 7.88071 18.9933 2.29959 18.9921C0.959832 18.9915 0.00631061 18.0675 0.00450013 16.7403C-0.00213831 11.911 -0.00274182 7.08233 0.0117421 2.25302C0.012949 1.91574 0.0938173 1.55101 0.237449 1.24728C0.648429 0.375097 1.38288 0 2.32373 0C8.99718 0.00121983 15.6706 0.000609812 22.3441 0.000609812C22.4002 0.000609812 22.4563 -0.000609989 22.5124 0.00182967C23.1974 0.0335452 23.7659 0.297638 24.2028 0.845342C24.4641 1.17165 24.5794 1.55345 24.673 1.94807ZM22.1347 1.48148C15.6012 1.48148 9.06718 1.48148 2.49573 1.48148C5.8059 4.7982 9.0877 8.08564 12.3556 11.3597C15.6278 8.05453 18.8794 4.76953 22.1347 1.48148ZM15.2337 10.5369C15.18 10.6028 15.1299 10.6772 15.0683 10.7394C14.3767 11.4402 13.6839 12.1403 12.9899 12.8393C12.5777 13.2541 12.1939 13.2547 11.7799 12.8411C11.0605 12.1221 10.3436 11.4011 9.62541 10.6814C9.56506 10.6204 9.50109 10.5625 9.48178 10.5442C7.16255 12.8875 4.86263 15.2125 2.58504 17.5137C9.07382 17.5137 15.6091 17.5137 22.1371 17.5137C19.8468 15.1991 17.5608 12.8887 15.2337 10.5369ZM1.45832 16.3518C3.73048 14.0555 6.03462 11.7268 8.34118 9.39573C6.08049 7.1299 3.7866 4.83113 1.45832 2.4976C1.45832 7.1793 1.45832 11.8012 1.45832 16.3518ZM16.3755 9.47441C18.6573 11.7805 20.9452 14.0927 23.2113 16.3823C23.2113 11.8043 23.2113 7.17991 23.2113 2.56591C20.9222 4.87932 18.6368 7.18906 16.3755 9.47441Z" fill="#707070"/>
</svg>

<svg xmlns="http://www.w3.org/2000/svg" width="25" height="19" fill="none"><path d="M24.673 1.948v15.097c-.007.014-.018.028-.02.044-.179 1.17-1.145 1.945-2.381 1.91-1.076-.03-2.152-.006-3.228-.006H2.3C.96 18.99.006 18.067.005 16.74c-.007-4.829-.008-9.658.007-14.487 0-.337.082-.702.225-1.006C.648.375 1.383 0 2.324 0h20.02c.056 0 .112 0 .168.002.685.032 1.254.296 1.69.843.262.327.377.708.471 1.103zm-2.538-.467H2.495l9.86 9.879 9.78-9.879zm-6.901 9.056c-.054.066-.104.14-.166.202-.691.701-1.384 1.401-2.078 2.1-.412.415-.796.416-1.21.002-.72-.719-1.436-1.44-2.155-2.16-.06-.06-.124-.118-.143-.137-2.32 2.343-4.62 4.668-6.897 6.97h19.552l-6.903-6.977zM1.458 16.352l6.883-6.956-6.883-6.898v13.854zm14.917-6.878l6.836 6.908V2.566l-6.835 6.908z" fill="#707070"/></svg>
